X: 33
T:J.B. Milne
% Nottingham Music Database
S:via PR
M:4/4
L:1/4
K:A
c/2d/2|"A"e/2f/2e/2d/2 cA|EA c2|"A"c/2e/2d/2c/2 BA|"Bm"d3B/2c/2|\
"E"d/2e/2d/2c/2 BG|
EG B2|"E"B/2d/2c/2B/2 "E7"AB|"A"c3c/2d/2|"A"e/2f/2e/2d/2 cA|EA c2|\
"A"c/2e/2d/2c/2 BA|
"D"f3f/2g/2|"Adim""d#"a/2f/2^d/2^B/2 Aa/2g/2|"A"f/2e/2c/2A/2 Eg/2f/2|\
"Bm"e^d/2e/2 "E7"fg|"A"a3c/2d/2|
"A"ec fc|ec fc|"A"e2 f/2e/2d/2c/2|"Bm"d3B/2c/2|"E"dB eB|dB eB|
"E"d2 "E7"e/2d/2c/2B/2|"A"c3c/2d/2|"A"ec fc|ec fc|"A"ag/2a/2 b/2a/2g/2a/2|
"D"f3f/2g/2|a/2b/2a/2g/2 f/2a/2g/2f/2|"A"f/2e/2c/2A/2 Eg/2f/2|\
"E"e^d/2e/2 "E7"fg|"A"a3||


